icons/op-no-hierarchy-24.svg

<svg xmlns="http://www.w3.org/2000/svg" width="24" height="24" viewBox="0 0 24 24"><path d="M15 5.6V4H9v16h6v-1.6h-4v-3.2h4v-1.6h-4v-3.2h4V8.8h-4V5.6h4Z"/></svg>

<svg width="24" height="24" viewBox="0 0 24 24" fill="none" xmlns="http://www.w3.org/2000/svg">
<path d="M15 5.6V4H9V20H15V18.4H11V15.2H15V13.6H11V10.4H15V8.8H11V5.6H15Z" fill="black"/>
</svg>
